X:0014
T:The Irish Hautboy.
M:2/4
L:1/8
I: :: ::
%% D  E  G  A  B  c  d  e ^f  g
Z:Jack Campin * www.campin.me.uk * 2009
K:G
D>EGA|B2B2|c2BA|BGE2|DEGA|B2B2|AGAB|GGG2:|
gfed |efge|dcBA|BGE2|gfed|efge|dcBA|GGG2:|

